X:1
T:Love Unknown, 12.12.88
T:Love Unknown, 12.12.88
T:John Ireland, 1918
T:Public Domain Courtesy of the Cyber Hymnal™
C:John Ireland, 1918
Z:Public Domain
Z:Courtesy of the Cyber Hymnal™
%%score ( 1 2 ) ( 3 4 )
L:1/8
Q:1/4=117
M:none
K:D
V:1 treble 
V:2 treble 
V:3 bass 
V:4 bass 
V:1
 [DF]4 | [DA]2 [B,B]2 [CF]4 [CE]4 x2 | [B,D]6 [A,E]2 | [DF]2 [DG]2 [CA]2 [DF]2 | [DB]6 [DB]2 x2 | %5
 [Gc]2 [GB]2 [CA]2 [FA]2 | [Dd]2 [Ec]2 [FB]2 [CA]2 | (A2 F4) [E^G]2 x2 | A6 [DA]2 | %9
 [E=c]2 [DB]2 G6 z2 G2 | [DB]2 [=CA]2 [B,D]6 [A,E]2 | [A,F]2 [DG]2 [DA]2 [DF]2 | [CF]4 [CE]4 x2 | %13
 D4 |] %14
V:2
 x4 | x14 | x8 | x8 | x10 | x8 | x8 | E6 x4 | (E2 D2 C2) x2 | x4 B,4 =C4 x2 | x12 | x8 | x10 | %13
 D4 |] %14
V:3
 [D,A,]4 | [F,A,]2 [D,F,]2 A,6 z2 G,2 | G,4 F,2 [C,E,]2 | [D,A,]2 [E,A,]2 [F,A,]2 [D,B,]2 | %4
 G,6 z2 G,2 | [E,G,]2 [E,G,]2 [F,A,]2 [F,C]2 | [B,,B,]2 [C,A,]2 [D,F,]2 [F,A,]2 | B,6 z2 B,2 | %8
 A,6 [D,F,]2 | [=C,G,]2 [D,F,]2 [E,G,]4 [C,E,]4 x2 | [G,,G,]2 [A,,F,]2 (A,4 G,2) [C,E,]2 | %11
 [D,A,]2 [B,,G,]2 [F,,F,]2 [G,,B,]2 | A,6 z2 G,2 | [D,F,]4 |] %14
V:4
 x4 | x4 A,4 A,,4 x2 | B,,6 x2 | x8 | G,4 F,4 x2 | x8 | x8 | E,4 D,4 x2 | (C,2 B,,2 A,,2) x2 | %9
 x14 | x4 B,,6 x2 | x8 | A,,4 A,,4 x2 | x4 |] %14

